X:2
T:The Torn Jacket (répété)
R:reel
M:4/4
L:1/8
Q:2/4=90
K:Dmaj
%
%
|:F3A d2 ed|cAAB cdec|FEFA d2 ed|cAGE EDDE|
FEFA d2 ed|cAAB cdec|dcde f2 ed|cAGE EDD2:|
% B1
|: FAdf a2 af|g2 gf gfed|cAA2 cdef|gfed cAGE|
| FAdf a2 ab|g2 gf gfef|gaba gfed|cAGE EDD2 :|
%
%
|:F3A d2 ed|cAAB cdec|FEFA d2 ed|cAGE EDDE|
FEFA d2 ed|cAAB cdec|dcde f2 ed|cAGE EDD2:|
% B1
|: FAdf a2 ab|g2 gf gfed|cAA2 cdef|gfed cAGE|
| FAdf a2 ab|g2 gf gfef|gaba gfed|cAGE EDD2 :|
%
%
|:F3A d2 ed|cAAB cdec|FEFA d2 ed|cAGE EDDE|
FEFA d2 ed|cAAB cdec|dcde f2 ed|cAGE EDD2:|
% B1
|: FAdf a2 ab|g2 gf gfed|cAA2 cdef|gfed cAGE|
| FAdf a2 ab|g2 gf gfef|gaba gfed|cAGE EDD2 :|
%
%
|:F3A d2 ed|cAAB cdec|FEFA d2 ed|cAGE EDDE|
FEFA d2 ed|cAAB cdec|dcde f2 ed|cAGE EDD2:|
% B1
|: FAdf a2 ab|g2 gf gfed|cAA2 cdef|gfed cAGE|
| FAdf a2 ab|g2 gf gfef|gaba gfed|cAGE EDD2 :|
%
%
|:F3A d2 ed|cAAB cdec|FEFA d2 ed|cAGE EDDE|
FEFA d2 ed|cAAB cdec|dcde f2 ed|cAGE EDD2:|
% B1
|: FAdf a2 ab|g2 gf gfed|cAA2 cdef|gfed cAGE|
| FAdf a2 ab|g2 gf gfef|gaba gfed|cAGE EDD2 :|
%
%
|:F3A d2 ed|cAAB cdec|FEFA d2 ed|cAGE EDDE|
FEFA d2 ed|cAAB cdec|dcde f2 ed|cAGE EDD2:|
% B1
|: FAdf a2 ab|g2 gf gfed|cAA2 cdef|gfed cAGE|
| FAdf a2 ab|g2 gf gfef|gaba gfed|cAGE EDD2 :|
%
%
|:F3A d2 ed|cAAB cdec|FEFA d2 ed|cAGE EDDE|
FEFA d2 ed|cAAB cdec|dcde f2 ed|cAGE EDD2:|
% B1
|: FAdf a2 ab|g2 gf gfed|cAA2 cdef|gfed cAGE|
| FAdf a2 ab|g2 gf gfef|gaba gfed|cAGE EDD2 :|
%
%

